X:4
T:Eli Greene's Cakewalk
C:Sadie Koninsky
M:4/4
R:reel
Q:1/2=120
L:1/8
K:G
"Em"E3FG2F2|"Em"EFGAB2 e2|"Em"E3FG2F2|"Em"EFGA B2B2|"Am"c3c"Em"B2B2|
"Am"c3c"Em"B4|1 B3c BAGA|"B7"B8:|2"Em"B3c "B7"BAGF|"Em".E4"D"D4|:"G"d^cde dcde|
"D"d2B2 G2A2|"Em"AB2c BAGA|"G"BBG2 D2E2|"D"D3D"A7"G2 G2|
"D7"F2d2 d4|"D7"d^cde d=cBA|1 "G"G2B2 G4:|2"G" G2B2 G2"B7"F2||
%%newpage
